X:52
T:The Sutor's Dochter
S:Petrie's Third Collection of Strathspey Reels and Country Dances &c.
Z:Steve Wyrick <sjwyrick'at'gmail'dot'com>, 7/31/05
N:Petrie's Third Collection, page 20-21
L:1/8
M:C
R:Strathspey
K:D
"^Slow"
D<A,B,<A, D2A,2|D>EFF F<EE>F|D<A,B,A, D2A,2|D>E[DF][DF] .F.F.F.F|
E>DE<F A3d|A>B (B/A/)(G/F/) B<EE>F|D<A,TB,A, D2A,2|TB>A (3BAF B<ETE>F|D<A,B,>A,D3||A|
d>ef>f f<ee>f|d<AB>A d2A2|d>eff .f.f.f.f|e>de<f a3b|a>ba<f b<ee>f|
d>AB>A d/c/d/e/ e/d/c/B/|(B/A/)(G/F/) (G/F/)(E/D/) F<EE>F|D<A,B,<A, D2A,2|[G,D,B]>A (3BAF A<EE>F|D<A,B,>A, D4|]
% Yes, there really are 9 measures in the 1st part and 10 in the 2nd! -SW
